Numix/16/status/indicator-keyboard-Tr-3.svg

<?xml version="1.0" encoding="UTF-8" standalone="no"?>
<svg
   xmlns:dc="http://purl.org/dc/elements/1.1/"
   xmlns:cc="http://creativecommons.org/ns#"
   xmlns:rdf="http://www.w3.org/1999/02/22-rdf-syntax-ns#"
   xmlns:svg="http://www.w3.org/2000/svg"
   xmlns="http://www.w3.org/2000/svg"
   xmlns:sodipodi="http://sodipodi.sourceforge.net/DTD/sodipodi-0.dtd"
   xmlns:inkscape="http://www.inkscape.org/namespaces/inkscape"
   viewBox="0 0 16 16"
   id="svg2"
   version="1.1"
   inkscape:version="0.91 r13725"
   sodipodi:docname="indicator-keyboard-Tr-3.svg">
  <metadata
     id="metadata14">
    <rdf:RDF>
      <cc:Work
         rdf:about="">
        <dc:format>image/svg+xml</dc:format>
        <dc:type
           rdf:resource="http://purl.org/dc/dcmitype/StillImage" />
      </cc:Work>
    </rdf:RDF>
  </metadata>
  <defs
     id="defs12" />
  <sodipodi:namedview
     pagecolor="#ffffff"
     bordercolor="#666666"
     borderopacity="1"
     objecttolerance="10"
     gridtolerance="10"
     guidetolerance="10"
     inkscape:pageopacity="0"
     inkscape:pageshadow="2"
     inkscape:window-width="640"
     inkscape:window-height="480"
     id="namedview10"
     showgrid="false"
     inkscape:zoom="14.75"
     inkscape:cx="8"
     inkscape:cy="8"
     inkscape:window-x="65"
     inkscape:window-y="24"
     inkscape:window-maximized="0"
     inkscape:current-layer="svg2" />
  <path
     style="fill:#ececec;fill-opacity:1"
     d="M 1.5996094 0 C 0.71320937 2.9605947e-16 0 0.71320937 0 1.5996094 L 0 14.400391 C 2.9605947e-16 15.286791 0.71320937 16 1.5996094 16 L 14.400391 16 C 15.286791 16 16 15.286791 16 14.400391 L 16 1.5996094 C 16 0.71320937 15.286791 0 14.400391 0 L 1.5996094 0 z M 2.6542969 4.859375 L 7.2617188 4.859375 L 7.2617188 5.390625 L 5.2636719 5.390625 L 5.2636719 11.095703 L 4.6523438 11.095703 L 4.6523438 5.390625 L 2.6542969 5.390625 L 2.6542969 4.859375 z M 9.5253906 6.3535156 C 9.7173906 6.3535156 9.8984061 6.3684375 10.066406 6.3984375 C 10.240406 6.4284375 10.359781 6.4582812 10.425781 6.4882812 L 10.308594 6.9921875 C 10.260594 6.9681875 10.161719 6.9439219 10.011719 6.9199219 C 9.8677186 6.8899219 9.6755469 6.875 9.4355469 6.875 C 9.1835469 6.875 8.9802188 6.8936875 8.8242188 6.9296875 C 8.6742187 6.9656875 8.5753438 6.9955312 8.5273438 7.0195312 L 8.5273438 11.095703 L 7.9414062 11.095703 L 7.9414062 6.6582031 C 8.0914062 6.5922031 8.2985 6.5269375 8.5625 6.4609375 C 8.8265 6.3889375 9.1473906 6.3535156 9.5253906 6.3535156 z M 11.976562 8.7539062 C 12.179362 8.7539062 12.353747 8.7793781 12.498047 8.8300781 C 12.646247 8.8807781 12.767734 8.953275 12.865234 9.046875 C 12.962734 9.136575 13.035231 9.2463 13.082031 9.375 C 13.128831 9.4997999 13.152344 9.6350031 13.152344 9.7832031 C 13.152344 10.021103 13.087684 10.217041 12.958984 10.369141 C 12.834184 10.517341 12.673509 10.625106 12.474609 10.691406 C 12.583809 10.718706 12.687662 10.759859 12.789062 10.818359 C 12.894362 10.872959 12.988413 10.945456 13.070312 11.035156 C 13.152213 11.120956 13.218831 11.226762 13.269531 11.351562 C 13.320231 11.476363 13.345703 11.623316 13.345703 11.791016 C 13.345703 11.962616 13.314353 12.119372 13.251953 12.263672 C 13.193453 12.407972 13.103322 12.535331 12.982422 12.644531 C 12.865422 12.749831 12.716503 12.834084 12.533203 12.896484 C 12.349903 12.954984 12.134371 12.984375 11.888672 12.984375 C 11.759972 12.984375 11.64045 12.974578 11.53125 12.955078 C 11.42595 12.939478 11.333853 12.919884 11.251953 12.896484 C 11.170053 12.873084 11.099516 12.849572 11.041016 12.826172 C 10.986416 12.802772 10.945269 12.783178 10.917969 12.767578 L 11.017578 12.427734 C 11.040978 12.443334 11.080166 12.462928 11.134766 12.486328 C 11.189366 12.509728 11.254025 12.533241 11.328125 12.556641 C 11.406125 12.576141 11.490384 12.593775 11.583984 12.609375 C 11.681484 12.624975 11.787291 12.632813 11.900391 12.632812 C 12.27089 12.632812 12.535412 12.556397 12.695312 12.404297 C 12.855212 12.248297 12.935547 12.040597 12.935547 11.779297 C 12.935547 11.607697 12.902238 11.464662 12.835938 11.351562 C 12.773537 11.238462 12.687319 11.148331 12.574219 11.082031 C 12.465019 11.011831 12.3357 10.962847 12.1875 10.935547 C 12.043201 10.904347 11.888409 10.888672 11.724609 10.888672 L 11.666016 10.888672 L 11.666016 10.574219 L 11.800781 10.574219 C 11.906081 10.574219 12.013847 10.564422 12.123047 10.544922 C 12.236146 10.521522 12.338034 10.480375 12.427734 10.421875 C 12.521334 10.363375 12.595797 10.285 12.654297 10.1875 C 12.716697 10.09 12.748047 9.9646001 12.748047 9.8125 C 12.748047 9.6838 12.726494 9.5760281 12.683594 9.4863281 C 12.640694 9.3927281 12.583866 9.3182719 12.509766 9.2636719 C 12.439566 9.2090719 12.355312 9.1698844 12.257812 9.1464844 C 12.164213 9.1191844 12.064284 9.1054687 11.958984 9.1054688 C 11.748384 9.1054688 11.583797 9.1348594 11.466797 9.1933594 C 11.349797 9.2518594 11.255741 9.3067219 11.181641 9.3574219 L 11.017578 9.0585938 C 11.056578 9.0312937 11.105562 8.9999438 11.164062 8.9648438 C 11.226463 8.9297438 11.297006 8.8964344 11.378906 8.8652344 C 11.460806 8.8340344 11.550937 8.8085625 11.648438 8.7890625 C 11.749837 8.7656625 11.859562 8.7539062 11.976562 8.7539062 z "
     id="path4" />
</svg>

<svg xmlns="http://www.w3.org/2000/svg" viewBox="0 0 16 16">
 <path d="m 1.6 0 c -0.886 0 -1.6 0.713 -1.6 1.6 l 0 12.801 c 0 0.886 0.713 1.6 1.6 1.6 l 12.801 0 c 0.886 0 1.6 -0.713 1.6 -1.6 l 0 -12.801 c 0 -0.886 -0.713 -1.6 -1.6 -1.6 l -12.801 0 z m 1.055 4.859 l 4.607 0 l 0 0.531 l -1.998 0 l 0 5.705 l -0.611 0 l 0 -5.705 l -1.998 0 l 0 -0.531 z m 6.871 1.494 c 0.192 0 0.373 0.015 0.541 0.045 c 0.174 0.03 0.293 0.06 0.359 0.09 l -0.117 0.504 c -0.048 -0.024 -0.147 -0.048 -0.297 -0.072 c -0.144 -0.03 -0.336 -0.045 -0.576 -0.045 c -0.252 0 -0.455 0.019 -0.611 0.055 c -0.15 0.036 -0.249 0.066 -0.297 0.09 l 0 4.076 l -0.586 0 l 0 -4.437 c 0.15 -0.066 0.357 -0.131 0.621 -0.197 c 0.264 -0.072 0.585 -0.107 0.963 -0.107 z m 2.451 2.4 c 0.203 0 0.377 0.025 0.521 0.076 c 0.148 0.051 0.27 0.123 0.367 0.217 c 0.098 0.09 0.17 0.199 0.217 0.328 c 0.047 0.125 0.07 0.26 0.07 0.408 c 0 0.238 -0.065 0.434 -0.193 0.586 c -0.125 0.148 -0.285 0.256 -0.484 0.322 c 0.109 0.027 0.213 0.068 0.314 0.127 c 0.105 0.055 0.199 0.127 0.281 0.217 c 0.082 0.086 0.149 0.192 0.199 0.316 c 0.051 0.125 0.076 0.272 0.076 0.439 c 0 0.172 -0.031 0.328 -0.094 0.473 c -0.059 0.144 -0.149 0.272 -0.27 0.381 c -0.117 0.105 -0.266 0.19 -0.449 0.252 c -0.183 0.059 -0.399 0.088 -0.645 0.088 c -0.129 0 -0.248 -0.01 -0.357 -0.029 c -0.105 -0.016 -0.197 -0.035 -0.279 -0.059 c -0.082 -0.023 -0.152 -0.047 -0.211 -0.07 c -0.055 -0.023 -0.096 -0.043 -0.123 -0.059 l 0.1 -0.34 c 0.023 0.016 0.063 0.035 0.117 0.059 c 0.055 0.023 0.119 0.047 0.193 0.07 c 0.078 0.019 0.162 0.037 0.256 0.053 c 0.098 0.016 0.203 0.023 0.316 0.023 c 0.37 0 0.635 -0.076 0.795 -0.229 c 0.16 -0.156 0.24 -0.364 0.24 -0.625 c 0 -0.172 -0.033 -0.315 -0.1 -0.428 c -0.062 -0.113 -0.149 -0.203 -0.262 -0.27 c -0.109 -0.07 -0.239 -0.119 -0.387 -0.146 c -0.144 -0.031 -0.299 -0.047 -0.463 -0.047 l -0.059 0 l 0 -0.314 l 0.135 0 c 0.105 0 0.213 -0.01 0.322 -0.029 c 0.113 -0.023 0.215 -0.065 0.305 -0.123 c 0.094 -0.059 0.168 -0.137 0.227 -0.234 c 0.062 -0.098 0.094 -0.223 0.094 -0.375 c 0 -0.129 -0.022 -0.236 -0.064 -0.326 c -0.043 -0.094 -0.1 -0.168 -0.174 -0.223 c -0.07 -0.055 -0.154 -0.094 -0.252 -0.117 c -0.094 -0.027 -0.194 -0.041 -0.299 -0.041 c -0.211 0 -0.375 0.029 -0.492 0.088 c -0.117 0.059 -0.211 0.113 -0.285 0.164 l -0.164 -0.299 c 0.039 -0.027 0.088 -0.059 0.146 -0.094 c 0.062 -0.035 0.133 -0.068 0.215 -0.1 c 0.082 -0.031 0.172 -0.057 0.27 -0.076 c 0.101 -0.023 0.211 -0.035 0.328 -0.035 z" style="fill:#ececec;fill-opacity:1"/>
</svg>
